X:1
T:Frozen Logger
M:3/4
L:1/2
K:E
 B,/2| G G/2| F E/2| D/2 F-| F G/2| A A/2| B F/2| G3/2-| G G/2| B B/2|\
 A G/2| C/2 F-| F E/2| D A/2| G F/2| E3/2-| E||
